X:1
T:carol of the bells
T:carol of the bells
T:the next kelpy g.
T:i dunno
T:i dunno
C:the next kelpy g.
Z:i dunno
%%score 1 2
L:1/8
Q:1/4=120
M:3/4
K:C
V:1 bass nm="Trombone" snm="Tbn."
V:2 bass nm="Trombone" snm="Tbn."
V:1
 _B,2 A,_B, G,2 | _B,2 A,_B, G,2 | _B,2 A,_B, G,2 | _B,2 A,_B, G,2 | _B,2 A,_B, G,2 | %5
 _B,2 A,_B, G,2 | _B,2 A,_B, G,2 | _B,2 A,_B, G,2 | _B,2 A,_B, G,2 | _B,2 A,_B, G,2 | %10
 _B,2 A,_B, G,2 | _B,2 A,_B, G,2 | _B,2 A,_B, G,2 | _B,2 A,_B, G,2 | _B,2 A,_B, G,2 | %15
 _B,2 A,_B, G,2 | D2 CD _B,2 | D2 CD _B,2 | D2 CD _B,2 | D2 CD _B,2 | G,2 G,G, F,_E, | %21
 D,2 D,D, C,_B,, | C,2 C,C, D,C, | _B,,2 A,,_B,, G,,2 | D,_E, ^F,G, A,_B, | CD C2 _B,2 | %26
 D,_E, ^F,G, A,_B, | CD C2 _B,2 | _B,2 A,_B, G,2 | _B,2 A,_B, G,2 | _B,2 A,_B, G,2 | %31
 _B,2 A,_B, G,2 | _B,2 A,_B, G,2 | _B,2 A,_B, G,2 | _B,2 A,_B, G,2 | _B,2 A,_B, G,2 | %36
 _B,2 A,_B, G,2 | _B,2 A,_B, G,2 | _B,2 A,_B, G,2 | _B,2 A,_B, G,2 | _B,2 A,_B, G,2 | %41
 _B,2 A,_B, G,2 | _B,2 A,_B, G,2 | _B,2 A,_B, G,2 | _B,2 A,_B, G,2 | _B,2 A,_B, G,2 | %46
 _B,2 A,_B, G,2 | _B,2 A,_B, G,2 | _B,2 A,_B, G,2 | _B,2 A,_B, G,2 | _B,2 A,_B, G,2 | %51
 _B,2 A,_B, G,2 | _B,2 A,_B, G,2 | _B,2 A,_B, G,2 | _B,/ z/ z z4 | z6 | _B,2 A,_B, G,2 | %57
!<(! _B,2 A,_B, G,2!<)! | G,6- | G,6 |] %60
V:2
 z6 | z6 | z6 | z6 | G,6 | F,6 | _E,6 | D,6 | _E,6 | D,6 | C,6 | G,,6 | _E,2 _E,_E, _E,2 | %13
 G,2 G,G, G,2 | C2 CC C2 | G,2 G,G, G,2 | D6 | =E6 | F2 _E2 D2 | GF _E2 D2 | _B,2 A,_B, G,2 | %21
 _B,2 A,_B, G,2 | _B,2 A,_B, G,2 | _B,2 A,_B, G,2 | D,6 | =E,2 ^F,2 G,2 | D,6 | =E,2 ^F,2 G,2 | %28
 z6 | z6 | z6 | z4 G,2 | G,4 D2 | D4 C2 | _B,4 A,2 | G,4 F,2 | G,4 A,2 | _B,4 C2 | D6- | D4 G,2 | %40
 G,2 D4 | D3 C3 | _B,3 A,3 | G,3 F,3 | G,2 A,4 | _B,2 G,2 C2 | D6- | D4 D2 | _E4 C2 | D4 _E2 | %50
 F4 G2 | D4 C2 | _B,4 G,2 | A,4 _B,2 | C/ z/ z z4 | z6 | z6 |!<(! _B,,2 A,,_B,, G,,2!<)! | G,,6- | %59
 G,,6 |] %60

